!!!SOCIAL_FUNCTION:	dream songs
!!!PDT:	1929
!!!OTL: No_153_I_Wandered_Away.krn
!!!REG: Southwest
!!!LANG: Non-Tone
!!!LING_GROUP: Uto-Aztecan
**kern
*staff1
=1-
*clefF4
*k[f#c#g#]
*M3/4
(4f#\
4e\)
4d\
=2
4A\
8B\L
8B\J
4B\
=3||
*M5/4
[2A\
2A\]
4r
=4||
*M4/4
4d\
8.e\L
16e\Jk
8e\L
8e\J
4e\
=5||
*M3/4
4e\
4d\
4B\
=6
4A\
4F#\
8E\L
8E\J
=7||
*M5/8
4E\
8E\L
8E\
8E\J
=8||
*M2/4
4.E\
16r
16B\
=9||
*M3/4
4B\
4d\
8d\L
8d\J
=10
4d\
4B\
4F#\
=11
(4A\
8.F#\L)
16F#\Jk
8A\L
8A\J
=12
4A\
8F#\L
8F#\J
8E\
8r
=13
[2A\
8.A\L]
16F#\Jk
=14||
*M2/4
4.A\
8E\
=15
2E\
=16||
*M3/4
4B\
8A\L
8A\J
8F#\L
8F#\J
=17
2.E\
=18
4D\
4BB/
8.BB/L
16E/Jk
=19
4E\
2r
==
*-
